Assets/images/home grid/convenience.svg

<?xml version="1.0" encoding="UTF-8" standalone="no"?>
<svg
   version="1.1"
   width="80"
   height="80"
   style="clip-rule:evenodd;fill-rule:evenodd;image-rendering:optimizeQuality;shape-rendering:geometricPrecision;text-rendering:geometricPrecision"
   id="svg1"
   xmlns="http://www.w3.org/2000/svg"
   xmlns:svg="http://www.w3.org/2000/svg">
  <defs
     id="defs1" />
  <g
     id="g1"
     transform="matrix(0.32,0,0,0.32,0.16,0.16)">
    <path
       style="opacity:0.75"
       fill="#000000"
       d="m 202.5,-0.5 c 2,0 4,0 6,0 2.076,0.926808 3.243,2.59347 3.5,5 6.264,21.7042 11.431,43.0375 15.5,64 7.611,-0.5762 14.944,0.0905 22,2 0,3.3333 0,6.6667 0,10 -4.915,28.101 -10.415,56.767 -16.5,86 -4.644,14.418 -14.478,22.918 -29.5,25.5 -42.671,0.167 -85.337,0.667 -128,1.5 1.3083,6.04 2.8083,12.04 4.5,18 1.6477,1.217 3.481,2.05 5.5,2.5 42,0.333 84,0.667 126,1 14.68,8.163 17.014,18.497 7,31 -2.425,1.213 -4.759,2.379 -7,3.5 -3.667,0 -7.333,0 -11,0 -10.136,-5.056 -13.469,-13.056 -10,-24 -24.658,-1 -49.324,-1.333 -74,-1 3.609,12.24 -0.391,20.573 -12,25 -3.667,0 -7.3333,0 -11,0 -9.9543,-5.505 -13.2876,-13.838 -10,-25 C 76.0135,222.519 70.8468,217.852 68,210.5 61.0583,174.985 53.5583,138.319 45.5,100.5 43.8288,83.6254 40.3288,65.9588 35,47.5 33.5,44.6667 31.3333,42.5 28.5,41 19.8333,40.6667 11.1667,40.3333 2.5,40 c -1.02656,-0.5133 -2.026556,-1.0133 -3,-1.5 0,-2 0,-4 0,-6 0.809426,-0.9687 1.80943,-1.8021 3,-2.5 8.5248,-0.7596 17.0248,-0.593 25.5,0.5 8.4873,2.4848 14.4873,7.8181 18,16 1.6946,7.3065 3.1946,14.6398 4.5,22 5.9337,0.6113 11.6004,-0.222 17,-2.5 8.41,-6.6212 16.91,-13.1212 25.5,-19.5 0.3333,-7.6667 0.6667,-15.3333 1,-23 0.3176,-1.5609 1.1509,-2.7276 2.5,-3.5 20.6,-1.4653 41.266,-1.9653 62,-1.5 -0.655,-3.8547 0.679,-6.6881 4,-8.5 13.658,-3.90952 26.991,-7.40952 40,-10.5 z m -2,11 c 1.25,0.0774 2.083,0.744 2.5,2 1.116,3.3196 1.783,6.653 2,10 -1.319,-1.9875 -3.152,-3.1541 -5.5,-3.5 -8.021,-0.1684 -16.021,-0.6684 -24,-1.5 8.331,-1.6564 16.664,-3.9897 25,-7 z m 5,13 c 0.617,0.1107 1.117,0.444 1.5,1 2.801,14.9129 6.301,29.4129 10.5,43.5 -5.032,1.4125 -9.365,0.4125 -13,-3 0.99,-13.7544 1.323,-27.5877 1,-41.5 z m -101,6 c 30,0 60,0 90,0 0.166,7.3409 0,14.6742 -0.5,22 -2.263,-3.386 -5.097,-6.2193 -8.5,-8.5 -1.667,-0.6667 -3.333,-0.6667 -5,0 -8.667,8 -17.333,16 -26,24 -1.525,1.0086 -3.192,1.5086 -5,1.5 1.687,-6.7448 3.687,-13.4115 6,-20 -0.333,-0.6667 -0.667,-1.3333 -1,-2 -11.186,-5.3291 -22.686,-9.9958 -34.5,-14 -1.955,0.9533 -3.622,2.2866 -5,4 -4.202,11.852 -7.536,22.5186 -10,32 -0.5,-12.9957 -0.667,-25.9957 -0.5,-39 z m 18,15 c 6.523,2.7299 13.19,5.0633 20,7 -0.96,5.7129 -2.626,11.2129 -5,16.5 -6.992,0.4996 -13.992,0.6663 -21,0.5 2.711,-8.0732 4.711,-16.0732 6,-24 z m 60,10 c 4.877,3.711 8.877,8.211 12,13.5 -8.667,0.6667 -17.333,0.6667 -26,0 4.562,-4.7309 9.229,-9.2309 14,-13.5 z m -90,5 c 0.9767,2.7869 1.31,5.7869 1,9 -4.0138,0.1655 -8.0138,-0.0012 -12,-0.5 3.5667,-3.0795 7.2334,-5.9129 11,-8.5 z m -39,20 c 61.667,0 123.333,0 185,0 -1.153,8.7657 -2.82,17.4324 -5,26 0.209,0.586 0.543,1.086 1,1.5 -0.946,3.034 -1.946,6.034 -3,9 0.979,1.779 0.646,3.445 -1,5 0.522,0.561 0.855,1.228 1,2 -2.887,15.757 -6.721,31.59 -11.5,47.5 -3.916,5.903 -9.416,9.403 -16.5,10.5 -43.332,0.5 -86.665,0.667 -130,0.5 -4.4238,-23.685 -9.4238,-46.519 -15,-68.5 0.3333,-1 0.6667,-2 1,-3 -2.5724,-10.0292 -4.5724,-20.1959 -6,-30.5 z m 45,145 c 1.3471,0.671 2.514,0.671 3.5,0 4.711,1.984 6.211,5.817 4.5,11.5 -2.648,3.113 -5.981,4.113 -10,3 -3.6241,-2.161 -4.7907,-5.328 -3.5,-9.5 1.1065,-2.613 2.9399,-4.28 5.5,-5 z m 106,0 c 7.422,-0.538 10.255,3.129 8.5,11 -3.866,4.916 -8.199,5.249 -13,1 -1.694,-5.427 -0.194,-9.427 4.5,-12 z"
       id="path1" />
  </g>
</svg>

<?xml version="1.0" encoding="UTF-8"?>
<!DOCTYPE svg PUBLIC "-//W3C//DTD SVG 1.1//EN" "http://www.w3.org/Graphics/SVG/1.1/DTD/svg11.dtd">
<svg xmlns="http://www.w3.org/2000/svg" version="1.1" width="250px" height="250px" style="shape-rendering:geometricPrecision; text-rendering:geometricPrecision; image-rendering:optimizeQuality; fill-rule:evenodd; clip-rule:evenodd" xmlns:xlink="http://www.w3.org/1999/xlink">
<g><path style="opacity:0.75" fill="#000000" d="M 202.5,-0.5 C 204.5,-0.5 206.5,-0.5 208.5,-0.5C 210.576,0.426808 211.743,2.09347 212,4.5C 218.264,26.2042 223.431,47.5375 227.5,68.5C 235.111,67.9238 242.444,68.5905 249.5,70.5C 249.5,73.8333 249.5,77.1667 249.5,80.5C 244.585,108.601 239.085,137.267 233,166.5C 228.356,180.918 218.522,189.418 203.5,192C 160.829,192.167 118.163,192.667 75.5,193.5C 76.8083,199.54 78.3083,205.54 80,211.5C 81.6477,212.717 83.481,213.55 85.5,214C 127.5,214.333 169.5,214.667 211.5,215C 226.18,223.163 228.514,233.497 218.5,246C 216.075,247.213 213.741,248.379 211.5,249.5C 207.833,249.5 204.167,249.5 200.5,249.5C 190.364,244.444 187.031,236.444 190.5,225.5C 165.842,224.5 141.176,224.167 116.5,224.5C 120.109,236.74 116.109,245.073 104.5,249.5C 100.833,249.5 97.1667,249.5 93.5,249.5C 83.5457,243.995 80.2124,235.662 83.5,224.5C 76.0135,222.519 70.8468,217.852 68,210.5C 61.0583,174.985 53.5583,138.319 45.5,100.5C 43.8288,83.6254 40.3288,65.9588 35,47.5C 33.5,44.6667 31.3333,42.5 28.5,41C 19.8333,40.6667 11.1667,40.3333 2.5,40C 1.47344,39.4867 0.473444,38.9867 -0.5,38.5C -0.5,36.5 -0.5,34.5 -0.5,32.5C 0.309426,31.5313 1.30943,30.6979 2.5,30C 11.0248,29.2404 19.5248,29.407 28,30.5C 36.4873,32.9848 42.4873,38.3181 46,46.5C 47.6946,53.8065 49.1946,61.1398 50.5,68.5C 56.4337,69.1113 62.1004,68.278 67.5,66C 75.91,59.3788 84.41,52.8788 93,46.5C 93.3333,38.8333 93.6667,31.1667 94,23.5C 94.3176,21.9391 95.1509,20.7724 96.5,20C 117.1,18.5347 137.766,18.0347 158.5,18.5C 157.845,14.6453 159.179,11.8119 162.5,10C 176.158,6.09048 189.491,2.59048 202.5,-0.5 Z M 200.5,10.5 C 201.75,10.5774 202.583,11.244 203,12.5C 204.116,15.8196 204.783,19.153 205,22.5C 203.681,20.5125 201.848,19.3459 199.5,19C 191.479,18.8316 183.479,18.3316 175.5,17.5C 183.831,15.8436 192.164,13.5103 200.5,10.5 Z M 205.5,23.5 C 206.117,23.6107 206.617,23.944 207,24.5C 209.801,39.4129 213.301,53.9129 217.5,68C 212.468,69.4125 208.135,68.4125 204.5,65C 205.49,51.2456 205.823,37.4123 205.5,23.5 Z M 104.5,29.5 C 134.5,29.5 164.5,29.5 194.5,29.5C 194.666,36.8409 194.5,44.1742 194,51.5C 191.737,48.114 188.903,45.2807 185.5,43C 183.833,42.3333 182.167,42.3333 180.5,43C 171.833,51 163.167,59 154.5,67C 152.975,68.0086 151.308,68.5086 149.5,68.5C 151.187,61.7552 153.187,55.0885 155.5,48.5C 155.167,47.8333 154.833,47.1667 154.5,46.5C 143.314,41.1709 131.814,36.5042 120,32.5C 118.045,33.4533 116.378,34.7866 115,36.5C 110.798,48.352 107.464,59.0186 105,68.5C 104.5,55.5043 104.333,42.5043 104.5,29.5 Z M 122.5,44.5 C 129.023,47.2299 135.69,49.5633 142.5,51.5C 141.54,57.2129 139.874,62.7129 137.5,68C 130.508,68.4996 123.508,68.6663 116.5,68.5C 119.211,60.4268 121.211,52.4268 122.5,44.5 Z M 182.5,54.5 C 187.377,58.211 191.377,62.711 194.5,68C 185.833,68.6667 177.167,68.6667 168.5,68C 173.062,63.2691 177.729,58.7691 182.5,54.5 Z M 92.5,59.5 C 93.4767,62.2869 93.81,65.2869 93.5,68.5C 89.4862,68.6655 85.4862,68.4988 81.5,68C 85.0667,64.9205 88.7334,62.0871 92.5,59.5 Z M 53.5,79.5 C 115.167,79.5 176.833,79.5 238.5,79.5C 237.347,88.2657 235.68,96.9324 233.5,105.5C 233.709,106.086 234.043,106.586 234.5,107C 233.554,110.034 232.554,113.034 231.5,116C 232.479,117.779 232.146,119.445 230.5,121C 231.022,121.561 231.355,122.228 231.5,123C 228.613,138.757 224.779,154.59 220,170.5C 216.084,176.403 210.584,179.903 203.5,181C 160.168,181.5 116.835,181.667 73.5,181.5C 69.0762,157.815 64.0762,134.981 58.5,113C 58.8333,112 59.1667,111 59.5,110C 56.9276,99.9708 54.9276,89.8041 53.5,79.5 Z M 98.5,224.5 C 99.8471,225.171 101.014,225.171 102,224.5C 106.711,226.484 108.211,230.317 106.5,236C 103.852,239.113 100.519,240.113 96.5,239C 92.8759,236.839 91.7093,233.672 93,229.5C 94.1065,226.887 95.9399,225.22 98.5,224.5 Z M 204.5,224.5 C 211.922,223.962 214.755,227.629 213,235.5C 209.134,240.416 204.801,240.749 200,236.5C 198.306,231.073 199.806,227.073 204.5,224.5 Z"/></g>
</svg>
